X: 133
T: Miss Graham Clarke's Strathspey
C: Abraham Mackintosh
R: strathspey
M: C|
L: 1/8
Z: 2011 John Chambers <jc:trillian.mit.edu>
B: Abraham Mackintosh "A Collection of Strathspeys, Reels, Jigs &c.", Newcastle, after 1797, p.13
F: http://imslp.info/files/imglnks/usimg/a/a8/IMSLP80796-PMLP164326-Abraham_Mackintosh_coll.pdf
K: D
V: 1
f |\
d2A>f d2A>F | E<ee>d c>ABc | d>fe>f d>eB>d | A>BAF A<dd :|
f/g/ |\
afdf df/g/ af | bgeg eg/a/ bg | af df/g/ afdA | Bgfe fd df/g/ |
afdf df/g/ af | bgeg eg/a/ ba/g/ | f<ae>f d>eB>d | A>BAF Add |]
V: 2 clef=bass middle=d
z |\
d2d2 f2d2 | c2^g2 a2=g2 | f2a2 b2g2 | a2A2 d2D :|
z |\
[d2D2][d2D2] [d2D2][d2D2] | [g2G2][g2G2] [g2G2][g2G2] |\
[d2D2][d2D2] [d2D2][f2F2] | [g2G2][a2A2] [d2D2][d2D2] |
[d2D2][d2D2] [d2D2][d2D2] | [g2G2][g2G2] [g2G2][g2G2] |\
d2a2 b2g2 | a2A2 d2D |]

%%sep 2 1 500

